app/ui/icons/svg/underline.svg

<?xml version="1.0" encoding="UTF-8" standalone="no"?>
<svg
   xmlns:dc="http://purl.org/dc/elements/1.1/"
   xmlns:cc="http://creativecommons.org/ns#"
   xmlns:rdf="http://www.w3.org/1999/02/22-rdf-syntax-ns#"
   xmlns:svg="http://www.w3.org/2000/svg"
   xmlns="http://www.w3.org/2000/svg"
   xmlns:sodipodi="http://sodipodi.sourceforge.net/DTD/sodipodi-0.dtd"
   xmlns:inkscape="http://www.inkscape.org/namespaces/inkscape"
   width="8"
   height="8"
   viewBox="0 0 8 8"
   version="1.1"
   id="svg4"
   sodipodi:docname="underline.svg"
   inkscape:version="0.92.4 5da689c313, 2019-01-14">
  <metadata
     id="metadata10">
    <rdf:RDF>
      <cc:Work
         rdf:about="">
        <dc:format>image/svg+xml</dc:format>
        <dc:type
           rdf:resource="http://purl.org/dc/dcmitype/StillImage" />
        <dc:title></dc:title>
      </cc:Work>
    </rdf:RDF>
  </metadata>
  <defs
     id="defs8" />
  <sodipodi:namedview
     pagecolor="#bcbcbc"
     bordercolor="#666666"
     borderopacity="1"
     objecttolerance="10"
     gridtolerance="10"
     guidetolerance="10"
     inkscape:pageopacity="0"
     inkscape:pageshadow="2"
     inkscape:window-width="2560"
     inkscape:window-height="1386"
     id="namedview6"
     showgrid="false"
     inkscape:object-paths="true"
     inkscape:snap-intersection-paths="true"
     inkscape:zoom="59"
     inkscape:cx="1.5970439"
     inkscape:cy="4.9154182"
     inkscape:window-x="0"
     inkscape:window-y="28"
     inkscape:window-maximized="1"
     inkscape:current-layer="layer2"
     inkscape:snap-page="true" />
  <g
     inkscape:groupmode="layer"
     id="layer1"
     inkscape:label="Layer 1"
     style="display:none">
    <path
       style="fill:#ffffff"
       d="M 1,0 V 4 C 1,5.1 2.12,6 3.5,6 H 4 C 5.1,6 6,5.1 6,4 V 0 H 5 V 4 C 5,4.55 4.55,5 4,5 3.45,5 3,4.55 3,4 V 0 Z M 0,7 V 8 H 7 V 7 Z"
       id="path2"
       inkscape:connector-curvature="0" />
  </g>
  <g
     inkscape:groupmode="layer"
     id="layer2"
     inkscape:label="Layer 2">
    <path
       inkscape:connector-curvature="0"
       style="display:inline;fill:#d5d5d5;fill-opacity:1"
       d="M 1.5,1.953125 V 4 c 0,1.1 1.12,2 2.5,2 h 0.5 c 1.1,0 2,-0.9 2,-2 V 1.953125 h -1 V 4 c 0,0.55 -0.45,1 -1,1 -0.55,0 -1,-0.45 -1,-1 V 1.953125 Z"
       id="path835" />
    <rect
       style="opacity:1;fill:#d5d5d5;fill-opacity:1;stroke:none;stroke-width:0.12731078;stroke-linecap:round;stroke-linejoin:round;stroke-miterlimit:4;stroke-dasharray:none;stroke-opacity:1"
       id="rect838"
       width="2"
       height="2.8984475"
       x="1.5"
       y="0.16525427"
       ry="0.40000001"
       rx="0.40000001" />
    <rect
       rx="0.2"
       ry="0.2"
       y="0.16525427"
       x="5.5"
       height="2.8984475"
       width="1"
       id="rect842"
       style="opacity:1;fill:#d5d5d5;fill-opacity:1;stroke:none;stroke-width:0.09002232;stroke-linecap:round;stroke-linejoin:round;stroke-miterlimit:4;stroke-dasharray:none;stroke-opacity:1" />
    <rect
       style="opacity:1;fill:#d5d5d5;fill-opacity:1;stroke:none;stroke-width:0.1;stroke-linecap:round;stroke-linejoin:round;stroke-miterlimit:4;stroke-dasharray:none;stroke-opacity:1"
       id="rect844"
       width="7"
       height="1"
       x="0.5"
       y="7"
       rx="0.2"
       ry="0.2" />
  </g>
</svg>

<svg xmlns="http://www.w3.org/2000/svg" width="8" height="8" viewBox="0 0 8 8">
  <path style="fill: #ffffff;" d="M1 0v4c0 1.1 1.12 2 2.5 2h.5c1.1 0 2-.9 2-2v-4h-1v4c0 .55-.45 1-1 1s-1-.45-1-1v-4h-2zm-1 7v1h7v-1h-7z" />
</svg>
